X:1
T:Long Eddy Waltz
M:3/4
L:1/4
K:G
 G| G3/2- F/2 E| G/2 A3/2 B,| D3/2 D/2 D| D2 D/2D/2| G3/2 A/2 B| B A B|\
 G/2 d3/2 B| A2 D/2D/2| G3/2- A/2 B| B A B| G d3/2 B/2| A B3/2- A/2|\
 G/2 E3/2 E| D G B,| D3/2 E/2D/2-B,/2| D2||
